Catalina-dark/actions/22/preflight-verifier.svg

<svg xmlns="http://www.w3.org/2000/svg" viewBox="0 0 22 22">
  <defs id="defs3051">
    <style type="text/css" id="current-color-scheme">
      .ColorScheme-Text {
        color:#f2f2f2
      }
      </style>
  </defs>
 <path 
     style="fill:currentColor;fill-opacity:1;stroke:none"      
	 class="ColorScheme-Text"
        d="M 4.77672,3 C 4.3457867,3 4,3.35758 4,3.80078 L 4,18.19922 C 4,18.64242 4.3457867,19 4.77672,19 l 12.446553,0 C 17.654207,19 18,18.64242 18,18.19922 L 18,3.80078 C 18,3.35758 17.654207,3 17.223273,3 L 4.77672,3 Z m 8.889587,5 c 0.130913,0 0.24262,0.04633 0.334233,0.140627 l 0.668473,0.6875 c 0.09161,0.09429 0.136794,0.209106 0.136734,0.343746 0,0.134707 -0.04513,0.249467 -0.136734,0.343754 l -3.556966,3.656246 -0.66658,0.6875 C 10.353793,13.9536 10.242147,14 10.111227,14 9.9802467,14 9.8686133,13.953667 9.7769933,13.859373 L 9.10852,13.171873 7.33098,11.343753 C 7.2393,11.249527 7.1942467,11.13464 7.1942467,11 c 0,-0.134707 0.045067,-0.24946 0.1367333,-0.343747 l 0.6684733,-0.6875 c 0.09168,-0.09429 0.2032667,-0.140626 0.33424,-0.140626 0.13092,0 0.24256,0.04633 0.33424,0.140626 l 1.4432937,1.490234 3.220833,-3.31836 C 13.42368,8.04634 13.535327,8 13.666307,8 Z"
     />
</svg>

<svg width="22" height="22" viewBox="4 3 14 16" xmlns="http://www.w3.org/2000/svg">
<defs>
<style id="current-color-scheme" type="text/css">.ColorScheme-Text {
        color:#f2f2f2
      }</style>
</defs>
<path class="ColorScheme-Text" d="m4.7767 3c-0.43093 0-0.77672 0.35758-0.77672 0.80078v14.398c0 0.4432 0.34579 0.80078 0.77672 0.80078h12.447c0.43093 0 0.77673-0.35758 0.77673-0.80078v-14.398c0-0.4432-0.34579-0.80078-0.77673-0.80078h-12.447zm8.8896 5c0.13091 0 0.24262 0.04633 0.33423 0.14063l0.66847 0.6875c0.09161 0.09429 0.13679 0.20911 0.13673 0.34375 0 0.13471-0.04513 0.24947-0.13673 0.34375l-3.557 3.6562-0.66658 0.6875c-0.091674 0.094227-0.20332 0.14063-0.33424 0.14063-0.13098 0-0.24261-0.046333-0.33423-0.14063l-2.446-2.5156c-0.09168-0.094226-0.13673-0.20911-0.13673-0.34375 0-0.13471 0.045067-0.24946 0.13673-0.34375l0.66847-0.6875c0.09168-0.09429 0.20327-0.14063 0.33424-0.14063 0.13092 0 0.24256 0.04633 0.33424 0.14063l1.4433 1.4902 3.2208-3.3184c0.09162-0.094287 0.20327-0.14063 0.33425-0.14063z" fill="currentColor"/>
</svg>
